svg/water_boiler.svg

<svg xmlns="http://www.w3.org/2000/svg" viewBox="0 0 24 24"><path d="M8 2c-1.11 0-2 .89-2 2v12c0 1.11.89 2 2 2h1v2H6v2h3c1.11 0 2-.89 2-2v-2h2v2c0 1.11.89 2 2 2h3v-2h-3v-2h1c1.11 0 2-.89 2-2V4c0-1.11-.89-2-2-2zm4 2.97a2 2 0 0 1 2 2 2 2 0 0 1-2 2 2 2 0 0 1-2-2 2 2 0 0 1 2-2m-2 9.53h4V16h-4z"/></svg>

<?xml version="1.0" encoding="UTF-8"?><!DOCTYPE svg PUBLIC "-//W3C//DTD SVG 1.1//EN" "http://www.w3.org/Graphics/SVG/1.1/DTD/svg11.dtd"><svg xmlns="http://www.w3.org/2000/svg" xmlns:xlink="http://www.w3.org/1999/xlink" version="1.1" id="mdi-water-boiler" width="24" height="24" viewBox="0 0 24 24"><path d="M8 2C6.89 2 6 2.89 6 4V16C6 17.11 6.89 18 8 18H9V20H6V22H9C10.11 22 11 21.11 11 20V18H13V20C13 21.11 13.89 22 15 22H18V20H15V18H16C17.11 18 18 17.11 18 16V4C18 2.89 17.11 2 16 2H8M12 4.97A2 2 0 0 1 14 6.97A2 2 0 0 1 12 8.97A2 2 0 0 1 10 6.97A2 2 0 0 1 12 4.97M10 14.5H14V16H10V14.5Z" /></svg>
